icons/themes/default/world.svg

<svg viewBox="0 0 16 16" fill="none" xmlns="http://www.w3.org/2000/svg">
<path d="M8 16C12.4183 16 16 12.4183 16 8C16 3.58172 12.4183 0 8 0C3.58172 0 0 3.58172 0 8C0 12.4183 3.58172 16 8 16Z" fill="#88C9F9"/>
<path d="M11.4293 0.780457C10.9751 1.0329 10.5973 1.45957 10.0835 1.30535C9.25022 1.05557 8.1391 0.500012 7.41688 1.19423C6.69466 1.88846 6.52799 2.52757 7.41688 2.50001C8.30577 2.47246 8.91688 1.41646 9.36133 1.8609C9.80577 2.30535 9.69421 2.66668 8.6391 2.80535C7.58399 2.94401 6.44444 3.11112 5.83333 3.11112C5.22222 3.11112 5.0831 3.47201 5.49999 3.86135C5.91688 4.25068 5.24977 4.27779 4.55555 4.66668C3.86133 5.05557 4.72221 5.22223 5.30577 5.55557C5.88933 5.8889 6.33333 5.47201 6.58355 4.91646C6.83377 4.3609 7.90844 3.69423 8.35688 3.77779C8.80577 3.86135 8.80577 4.08357 8.72222 4.47201C8.63866 4.86046 9.05555 4.74979 9.0831 4.30535C9.11066 3.8609 9.6111 3.52757 9.99955 3.50001C10.388 3.47246 10.7218 4.02801 10.2773 4.30535C9.83288 4.58268 9.38844 4.80535 9.94399 4.94446C10.4995 5.08357 10.8884 5.80579 10.2498 6.11112C9.6111 6.41646 8.49999 6.61112 7.99999 6.3609C7.49999 6.11068 6.36088 5.74979 6.05555 5.94401C5.75022 6.13823 5.58355 6.33957 5.22222 6.47512C4.86133 6.61068 3.38888 7.27735 3.36088 8.13868C3.33288 9.00001 3.30577 9.97246 3.88888 10C4.47199 10.0276 5.88888 9.63912 6.33333 9.27779C6.77777 8.91646 7.38888 9.00001 7.5831 9.41646C7.77733 9.8329 7.63866 10.0831 7.44444 10.7498C7.25022 11.4165 7.57155 11.7498 7.8831 12.3329C8.19466 12.916 8.44444 13.2493 8.44444 13.6662C8.44444 14.0831 8.88888 14.4996 9.55555 13.8049C10.2222 13.1102 10.8333 11.7493 11.1111 11.2493C11.3889 10.7493 11.6111 9.63823 11.9444 9.41601C12.2778 9.19379 12.8058 8.66579 12.4164 8.74935C12.0271 8.8329 11.2498 8.72179 11.0555 8.16623C10.8613 7.61068 10.028 6.55512 10.4164 6.44401C10.8049 6.3329 11.2498 7.06179 11.4164 7.40579C11.5831 7.74979 11.8053 8.16623 12.1387 8.27735C12.472 8.38846 13.1942 7.53379 13.4164 7.40579C13.6387 7.27734 13.472 6.74979 13.0275 6.80535C12.5831 6.8609 12 6.80534 12 6.52801C12 6.25068 12.5555 5.8889 13 5.97246C13.4444 6.05601 13.7778 6.19468 14.0555 6.52801C14.3333 6.86134 14.8889 7.47246 15.1111 7.86134C15.3333 8.25023 15.5 8.30579 15.6111 7.61157C15.6849 7.15023 15.7831 6.89646 15.8733 6.62401C15.4231 4.03335 13.7311 1.87601 11.4293 0.780457Z" fill="#5C913B"/>
</svg>

<svg xmlns="http://www.w3.org/2000/svg" fill="none" viewBox="0 0 16 16">
  <path fill="#88C9F9" d="M8 16A8 8 0 1 0 8 0a8 8 0 0 0 0 16Z"/>
  <path fill="#5C913B" d="M11.43.78c-.455.253-.833.68-1.346.525-.834-.25-1.945-.805-2.667-.11-.722.693-.889 1.333 0 1.305.889-.028 1.5-1.084 1.944-.64.445.445.333.807-.722.945-1.055.139-2.195.306-2.806.306-.61 0-.75.361-.333.75.417.39-.25.417-.944.806-.695.389.166.555.75.889.583.333 1.027-.084 1.278-.64.25-.555 1.324-1.222 1.773-1.138.449.083.449.306.365.694-.083.388.334.278.361-.167.028-.444.528-.777.917-.805.388-.028.722.528.277.805-.444.278-.889.5-.333.64.555.139.944.86.306 1.166-.639.305-1.75.5-2.25.25s-1.64-.611-1.944-.417c-.306.194-.472.396-.834.531-.36.136-1.833.802-1.861 1.664C3.333 9 3.306 9.972 3.889 10c.583.028 2-.36 2.444-.722.445-.362 1.056-.278 1.25.138.194.417.056.667-.139 1.334-.194.666.128 1 .44 1.583.31.583.56.916.56 1.333 0 .417.445.834 1.112.139.666-.695 1.277-2.056 1.555-2.556s.5-1.61.833-1.833c.334-.222.862-.75.472-.667-.389.084-1.166-.027-1.36-.583-.195-.555-1.028-1.61-.64-1.722.389-.111.834.618 1 .962.167.344.39.76.723.871.333.111 1.055-.743 1.277-.871.223-.129.056-.656-.389-.6-.444.055-1.027 0-1.027-.278 0-.277.556-.64 1-.556.444.084.778.223 1.056.556.277.333.833.944 1.055 1.333.222.39.389.445.5-.25.074-.46.172-.715.262-.987A7.998 7.998 0 0 0 11.43.78Z"/>
</svg>
